remix/Buildings/building-3-line.svg

<svg viewBox="0 0 24 24" fill="currentColor" xmlns="http://www.w3.org/2000/svg"><path d="M10 10.1111V1L21 7V21H3V7L10 10.1111ZM12 4.36908V13.1886L5 10.0775V19H19V8.18727L12 4.36908Z"/></svg>

<svg viewBox="0 0 24 24" xmlns="http://www.w3.org/2000/svg"><path fill="none" d="M0 0h24v24H0Z"/><path d="M10 10.11V.99l11 6v14H3v-14l7 3.11Zm2-5.742v8.82l-7-3.12v8.922h14V8.17l-7-3.82Z"/></svg>
